img/proteo-icon.svg

<svg xmlns="http://www.w3.org/2000/svg" viewBox="0 0 10.28 14" width="13.707" height="18.667"  xmlns:v="https://vecta.io/nano"><path d="M3.615 1H1v12h2.615V1zm-.981 0v2.383h2.133q.529 0 .918.18h0q.389.18.583.523h0q.195.343.195.857h0q0 .48-.195.823h0q-.194.343-.583.514h0q-.389.171-.918.171h0-2.133v2.418h2.133q1.4 0 2.342-.48h0q.942-.48 1.416-1.363h0Q9 6.143 9 4.943h0q0-1.234-.475-2.117h0q-.474-.883-1.416-1.355h0Q6.167 1 4.767 1h0-2.133z" fill="#fff"/></svg>

<?xml version="1.0" encoding="UTF-8" standalone="no"?><!-- Generator: Gravit.io --><svg xmlns="http://www.w3.org/2000/svg" xmlns:xlink="http://www.w3.org/1999/xlink" style="isolation:isolate" viewBox="0 0 10.28 14" width="10.28pt" height="14pt"><path d=" M 3.615 1 L 1 1 L 1 13 L 3.615 13 L 3.615 1 Z  M 2.634 1 L 2.634 3.383 L 4.767 3.383 L 4.767 3.383 Q 5.296 3.383 5.685 3.563 L 5.685 3.563 L 5.685 3.563 Q 6.074 3.743 6.268 4.086 L 6.268 4.086 L 6.268 4.086 Q 6.463 4.429 6.463 4.943 L 6.463 4.943 L 6.463 4.943 Q 6.463 5.423 6.268 5.766 L 6.268 5.766 L 6.268 5.766 Q 6.074 6.109 5.685 6.28 L 5.685 6.28 L 5.685 6.28 Q 5.296 6.451 4.767 6.451 L 4.767 6.451 L 2.634 6.451 L 2.634 8.869 L 4.767 8.869 L 4.767 8.869 Q 6.167 8.869 7.109 8.389 L 7.109 8.389 L 7.109 8.389 Q 8.051 7.909 8.525 7.026 L 8.525 7.026 L 8.525 7.026 Q 9 6.143 9 4.943 L 9 4.943 L 9 4.943 Q 9 3.709 8.525 2.826 L 8.525 2.826 L 8.525 2.826 Q 8.051 1.943 7.109 1.471 L 7.109 1.471 L 7.109 1.471 Q 6.167 1 4.767 1 L 4.767 1 L 2.634 1 Z " fill="rgb(255,255,255)"/></svg>
